packages/icons/svg/Payment_SafePayment1_24px.svg

<svg xmlns="http://www.w3.org/2000/svg" viewBox="0 0 24 24"><rect x="5" y="10.5" width="4" height="2" rx=".5"/><path d="M21 11v-1a3.5 3.5 0 00-2-3.15V5.5A1.5 1.5 0 0017.5 4h-14A1.5 1.5 0 002 5.5v11A1.5 1.5 0 003.5 18H13v1a1 1 0 001 1h7a1 1 0 001-1v-7a1 1 0 00-1-1zm-3.5-2.5A1.5 1.5 0 0119 10v1h-3v-1a1.5 1.5 0 011.5-1.5zM17 6v.55A3.48 3.48 0 0014.64 8H4V6zM4 16V9h10.16a3.67 3.67 0 00-.16 1v1a1 1 0 00-1 1v2h-2.5a.5.5 0 000 1H13v1zm16 2h-5v-5h5z"/><path d="M8.5 14h-3a.5.5 0 000 1h3a.5.5 0 000-1zM17 15.85v.65a.5.5 0 001 0v-.65a1 1 0 10-1 0z"/></svg>

<svg xmlns="http://www.w3.org/2000/svg" viewBox="0 0 24 24"><defs></defs><g id="Calque_5" ><rect  x="5" y="10.5" width="4" height="2" rx="0.5"/><path  d="M21,11V10a3.5,3.5,0,0,0-2-3.15V5.5A1.5,1.5,0,0,0,17.5,4H3.5A1.5,1.5,0,0,0,2,5.5v11A1.5,1.5,0,0,0,3.5,18H13v1a1,1,0,0,0,1,1h7a1,1,0,0,0,1-1V12A1,1,0,0,0,21,11ZM17.5,8.5A1.5,1.5,0,0,1,19,10v1H16V10A1.5,1.5,0,0,1,17.5,8.5ZM17,6v.55A3.48,3.48,0,0,0,14.64,8H4V6ZM4,16V9H14.16A3.67,3.67,0,0,0,14,10v1a1,1,0,0,0-1,1v2H10.5a.5.5,0,0,0,0,1H13v1Zm16,2H15V13h5Z"/><path  d="M8.5,14h-3a.5.5,0,0,0,0,1h3a.5.5,0,0,0,0-1Z"/><path  d="M17,15.85v.65a.5.5,0,0,0,1,0v-.65a1,1,0,1,0-1,0Z"/></g></svg>
